X: 30772
T: Orphan, The
R: jig
M: 6/8
K: Eminor
vEF(G F)EB,|~uG3AG(A|~B3)u(AGF)|GEF u(EDB,)|
turn!vA,3u(EDB,)|GFG (AGA)|~vB3(AGF)|GE(FE3):|
vef(e d)BA|u(GAB) dB(d|e)ufe dBA|GEv(F E)DB,|
turn!uA,3EDB,|u(GFG) AGA|u(BAB) AGv(F|G)EFuE3:|

